src/assets/logos/tensorflow.svg

<svg version="1.2" xmlns="http://www.w3.org/2000/svg" viewBox="0 0 155 155"><defs><clipPath clipPathUnits="userSpaceOnUse" id="cp1"><path d="m143.76 38.86l-64.47-36.84v150.98l25.76-14.96v-42.47l19.45 11.25-0.11-29.05-19.34-11.05v-16.87l38.8 22.42z"/></clipPath><linearGradient id="P" gradientUnits="userSpaceOnUse"/><linearGradient id="g1" x2="1" href="#P" gradientTransform="matrix(158.31,0,0,151.71,3.08,77.33)"><stop stop-color="#ff6f00"/><stop offset="1" stop-color="#ffa800"/></linearGradient><clipPath clipPathUnits="userSpaceOnUse" id="cp2"><path d="m9.03 38.86l64.47-36.84v150.98l-25.76-14.96v-88.19l-38.8 22.42z"/></clipPath><linearGradient id="g2" x2="1" href="#P" gradientTransform="matrix(158.32,0,0,151.719,2,77.33)"><stop stop-color="#ff6f00"/><stop offset="1" stop-color="#ffa800"/></linearGradient></defs><style>.a{fill:url(#g1)}.b{fill:url(#g2)}</style><g clip-path="url(#cp1)"><path class="a" d="m3.1 1.5h158.3v151.7h-158.3z"/></g><g clip-path="url(#cp2)"><path class="b" d="m2 1.5h158.3v151.7h-158.3z"/></g></svg>

<svg xmlns="http://www.w3.org/2000/svg" version="1.2" viewBox="0 0 155 155">
  <defs>
    <linearGradient id="a" gradientUnits="userSpaceOnUse"/>
    <linearGradient id="c" x2="1" gradientTransform="matrix(158.31 0 0 151.71 3.08 77.33)" href="#a">
      <stop stop-color="#ff6f00"/>
      <stop offset="1" stop-color="#ffa800"/>
    </linearGradient>
    <linearGradient id="e" x2="1" gradientTransform="matrix(158.32 0 0 151.719 2 77.33)" href="#a">
      <stop stop-color="#ff6f00"/>
      <stop offset="1" stop-color="#ffa800"/>
    </linearGradient>
    <clipPath id="b" clipPathUnits="userSpaceOnUse">
      <path d="M143.76 38.86 79.29 2.02V153l25.76-14.96V95.57l19.45 11.25-.11-29.05-19.34-11.05V49.85l38.8 22.42z"/>
    </clipPath>
    <clipPath id="d" clipPathUnits="userSpaceOnUse">
      <path d="M9.03 38.86 73.5 2.02V153l-25.76-14.96V49.85L8.94 72.27z"/>
    </clipPath>
  </defs>
  <g clip-path="url(#b)">
    <path d="M3.1 1.5h158.3v151.7H3.1z" style="fill:url(#c)"/>
  </g>
  <g clip-path="url(#d)">
    <path d="M2 1.5h158.3v151.7H2z" style="fill:url(#e)"/>
  </g>
</svg>
